tools/download-figma-icons/icons/outlined-medium/battery-lifetime.svg

<svg width="24" height="24" viewBox="0 0 24 24" fill="none" xmlns="http://www.w3.org/2000/svg">
<path fill-rule="evenodd" clip-rule="evenodd" d="M17.2477 22.5C17.6625 22.5 18 22.1625 18 21.7477V4.50225C18 4.0875 17.6625 3.75 17.2477 3.75H15V1.5H9V3.75H6.75225C6.3375 3.75 6 4.0875 6 4.50225V21.7477C6 22.1625 6.3375 22.5 6.75225 22.5H17.2477ZM16.5 2.25H17.2477C18.4897 2.25 19.5 3.26025 19.5 4.50225V21.7477C19.5 22.9897 18.4897 24 17.2477 24H6.75225C5.51025 24 4.5 22.9897 4.5 21.7477V4.50225C4.5 3.26025 5.51025 2.25 6.75225 2.25H7.5V1.5C7.5 0.67275 8.17275 0 9 0H15C15.8273 0 16.5 0.67275 16.5 1.5V2.25ZM8.25 18.7499H15.75C16.1648 18.7499 16.5 19.0852 16.5 19.4999V20.2499C16.5 20.6646 16.1648 20.9999 15.75 20.9999H8.25C7.83525 20.9999 7.5 20.6646 7.5 20.2499V19.4999C7.5 19.0852 7.83525 18.7499 8.25 18.7499ZM15.75 14.9999H8.25C7.83525 14.9999 7.5 15.3352 7.5 15.7499V16.4999C7.5 16.9146 7.83525 17.2499 8.25 17.2499H15.75C16.1648 17.2499 16.5 16.9146 16.5 16.4999V15.7499C16.5 15.3352 16.1648 14.9999 15.75 14.9999ZM8.25 11.2499H15.75C16.1648 11.2499 16.5 11.5851 16.5 11.9999V12.7499C16.5 13.1646 16.1648 13.4999 15.75 13.4999H8.25C7.83525 13.4999 7.5 13.1646 7.5 12.7499V11.9999C7.5 11.5851 7.83525 11.2499 8.25 11.2499Z" fill="black"/>
</svg>

<svg xmlns="http://www.w3.org/2000/svg" width="24" height="24" fill="none" viewBox="0 0 24 24"><path fill="currentColor" fill-rule="evenodd" d="M17.248 22.5a.753.753 0 0 0 .752-.752V4.502a.753.753 0 0 0-.752-.752H15V1.5H9v2.25H6.752A.753.753 0 0 0 6 4.502v17.246c0 .415.338.752.752.752zM16.5 2.25h.748A2.255 2.255 0 0 1 19.5 4.502v17.246A2.255 2.255 0 0 1 17.248 24H6.752A2.255 2.255 0 0 1 4.5 21.748V4.502A2.255 2.255 0 0 1 6.752 2.25H7.5V1.5C7.5.673 8.173 0 9 0h6c.827 0 1.5.673 1.5 1.5zm-8.25 16.5h7.5a.75.75 0 0 1 .75.75v.75a.75.75 0 0 1-.75.75h-7.5a.75.75 0 0 1-.75-.75v-.75a.75.75 0 0 1 .75-.75m7.5-3.75h-7.5a.75.75 0 0 0-.75.75v.75c0 .415.335.75.75.75h7.5a.75.75 0 0 0 .75-.75v-.75a.75.75 0 0 0-.75-.75m-7.5-3.75h7.5a.75.75 0 0 1 .75.75v.75a.75.75 0 0 1-.75.75h-7.5a.75.75 0 0 1-.75-.75V12a.75.75 0 0 1 .75-.75" clip-rule="evenodd"/></svg>
